src/assets/icons/letters,simple,serif-n.svg

<svg width="48" height="48" viewBox="0 0 48 48" fill="none" xmlns="http://www.w3.org/2000/svg">
<rect opacity="0.2" x="5" y="5" width="38" height="38" rx="4" fill="black"/>
<path d="M29.9936 36.3L16.7036 17.37H16.5836V30.27C16.5836 31.27 16.6136 32.06 16.6736 32.64C16.7536 33.22 16.9036 33.67 17.1236 33.99C17.3636 34.31 17.6836 34.52 18.0836 34.62C18.5036 34.72 19.0436 34.78 19.7036 34.8V36H10.7936V34.8C11.5336 34.78 12.1236 34.72 12.5636 34.62C13.0236 34.5 13.3736 34.29 13.6136 33.99C13.8736 33.69 14.0436 33.27 14.1236 32.73C14.2036 32.17 14.2436 31.42 14.2436 30.48V18.42C14.2436 17.58 14.2036 16.89 14.1236 16.35C14.0436 15.79 13.8936 15.35 13.6736 15.03C13.4536 14.71 13.1336 14.49 12.7136 14.37C12.3136 14.23 11.7736 14.14 11.0936 14.1V12.9H19.4636L31.5536 30.24H31.6736V18.63C31.6736 17.65 31.6336 16.87 31.5536 16.29C31.4936 15.69 31.3436 15.23 31.1036 14.91C30.8836 14.59 30.5636 14.38 30.1436 14.28C29.7436 14.18 29.2136 14.12 28.5536 14.1V12.9H37.4636V14.1C36.7236 14.12 36.1236 14.19 35.6636 14.31C35.2236 14.41 34.8736 14.61 34.6136 14.91C34.3736 15.21 34.2136 15.64 34.1336 16.2C34.0536 16.76 34.0136 17.5 34.0136 18.42V36.3H29.9936Z" fill="black"/>
</svg>

<svg xmlns="http://www.w3.org/2000/svg" width="48" height="48" fill="none" viewBox="0 0 48 48">
  <rect width="38" height="38" x="5" y="5" fill="#000" opacity=".2" rx="4"/>
  <path fill="#000" d="M29.994 36.3l-13.29-18.93h-.12v12.9c0 1 .03 1.79.09 2.37.08.58.23 1.03.45 1.35.24.32.56.53.96.63.42.1.96.16 1.62.18V36h-8.91v-1.2c.74-.02 1.33-.08 1.77-.18.46-.12.81-.33 1.05-.63.26-.3.43-.72.51-1.26.08-.56.12-1.31.12-2.25V18.42c0-.84-.04-1.53-.12-2.07-.08-.56-.23-1-.45-1.32-.22-.32-.54-.54-.96-.66-.4-.14-.94-.23-1.62-.27v-1.2h8.37l12.09 17.34h.12V18.63c0-.98-.04-1.76-.12-2.34-.06-.6-.21-1.06-.45-1.38-.22-.32-.54-.53-.96-.63-.4-.1-.93-.16-1.59-.18v-1.2h8.91v1.2c-.74.02-1.34.09-1.8.21-.44.1-.79.3-1.05.6-.24.3-.4.73-.48 1.29-.08.56-.12 1.3-.12 2.22V36.3h-4.02z"/>
</svg>
